(Decimal precision updated by Gcode Rounder 1.0)
(Generated by PartKam Version 0.05)

G21 G90 G40

(speaker mount)
G0 Z3
T0 M6
G17
M3
G0 X27.163959 Y103.011168
G1 Z-4 F50
G1 Z0 F50
G0 Z3
G0 X71.613959 Y103.011168
G1 Z-4 F50
G1 Z0 F50
G0 Z3
G0 X71.613959 Y147.461168
G1 Z-4 F50
G1 Z0 F50
G0 Z3
G0 X27.163959 Y147.461168
G1 Z-4 F50
G1 Z0 F50
G0 Z3
G0 X327.025127 Y103.011168
G1 Z-4 F50
G1 Z0 F50
G0 Z3
G0 X371.827665 Y103.011168
G1 Z-4 F50
G1 Z0 F50
G0 Z3
G0 X371.827665 Y147.461168
G1 Z-4 F50
G1 Z0 F50
G0 Z3
G0 X327.025127 Y147.461168
G1 Z-4 F50
G1 Z0 F50

(speaker grille)
G0 Z3
G0 X49.212437 Y147.637563
G1 Z-1.340102 F50
G1 X49.213198 Y102.345178 F1200
G0 Z3
G0 X49.212437 Y147.637563
G1 Z-2.680203 F50
G1 X49.213198 Y102.345178 F1200
G0 Z3
G0 X49.212437 Y147.637563
G1 Z-4 F50
G1 X49.213198 Y102.345178 F1200
G0 Z3
G0 X54.856853 Y147.637563
G1 Z-1.340102 F50
G1 X54.857868 Y102.345178 F1200
G0 Z3
G0 X54.856853 Y147.637563
G1 Z-2.680203 F50
G1 X54.857868 Y102.345178 F1200
G0 Z3
G0 X54.856853 Y147.637563
G1 Z-4 F50
G1 X54.857868 Y102.345178 F1200
G0 Z3
G0 X43.56802 Y147.637563
G1 Z-1.340102 F50
G1 X43.568528 Y102.345178 F1200
G0 Z3
G0 X43.56802 Y147.637563
G1 Z-2.680203 F50
G1 X43.568528 Y102.345178 F1200
G0 Z3
G0 X43.56802 Y147.637563
G1 Z-4 F50
G1 X43.568528 Y102.345178 F1200
G0 Z3
G0 X37.923604 Y141.993147
G1 Z-1.340102 F50
G1 X37.923858 Y107.743655 F1200
G0 Z3
G0 X37.923604 Y141.993147
G1 Z-2.680203 F50
G1 X37.923858 Y107.743655 F1200
G0 Z3
G0 X37.923604 Y141.993147
G1 Z-4 F50
G1 X37.923858 Y107.743655 F1200
G0 Z3
G0 X60.501269 Y141.993147
G1 Z-1.340102 F50
G1 X60.502538 Y107.743655 F1200
G0 Z3
G0 X60.501269 Y141.993147
G1 Z-2.680203 F50
G1 X60.502538 Y107.743655 F1200
G0 Z3
G0 X60.501269 Y141.993147
G1 Z-4 F50
G1 X60.502538 Y107.743655 F1200
G0 Z3
G0 X32.279188 Y136.331472
G1 Z-1.340102 F50
G1 X32.279188 Y113.725888 F1200
G0 Z3
G0 X32.279188 Y136.331472
G1 Z-2.680203 F50
G1 X32.279188 Y113.725888 F1200
G0 Z3
G0 X32.279188 Y136.331472
G1 Z-4 F50
G1 X32.279188 Y113.725888 F1200
G0 Z3
G0 X66.145939 Y136.331472
G1 Z-1.340102 F50
G1 X66.14467 Y113.725888 F1200
G0 Z3
G0 X66.145939 Y136.331472
G1 Z-2.680203 F50
G1 X66.14467 Y113.725888 F1200
G0 Z3
G0 X66.145939 Y136.331472
G1 Z-4 F50
G1 X66.14467 Y113.725888 F1200
G0 Z3
G0 X349.073604 Y147.637563
G1 Z-1.340102 F50
G1 X349.073604 Y102.345178 F1200
G0 Z3
G0 X349.073604 Y147.637563
G1 Z-2.680203 F50
G1 X349.073604 Y102.345178 F1200
G0 Z3
G0 X349.073604 Y147.637563
G1 Z-4 F50
G1 X349.073604 Y102.345178 F1200
G0 Z3
G0 X354.71802 Y147.637563
G1 Z-1.340102 F50
G1 X354.718274 Y102.345178 F1200
G0 Z3
G0 X354.71802 Y147.637563
G1 Z-2.680203 F50
G1 X354.718274 Y102.345178 F1200
G0 Z3
G0 X354.71802 Y147.637563
G1 Z-4 F50
G1 X354.718274 Y102.345178 F1200
G0 Z3
G0 X343.429188 Y147.637563
G1 Z-1.340102 F50
G1 X343.428934 Y102.345178 F1200
G0 Z3
G0 X343.429188 Y147.637563
G1 Z-2.680203 F50
G1 X343.428934 Y102.345178 F1200
G0 Z3
G0 X343.429188 Y147.637563
G1 Z-4 F50
G1 X343.428934 Y102.345178 F1200
G0 Z3
G0 X337.784772 Y141.993147
G1 Z-1.340102 F50
G1 X337.784264 Y107.743655 F1200
G0 Z3
G0 X337.784772 Y141.993147
G1 Z-2.680203 F50
G1 X337.784264 Y107.743655 F1200
G0 Z3
G0 X337.784772 Y141.993147
G1 Z-4 F50
G1 X337.784264 Y107.743655 F1200
G0 Z3
G0 X360.362437 Y141.993147
G1 Z-1.340102 F50
G1 X360.362944 Y107.743655 F1200
G0 Z3
G0 X360.362437 Y141.993147
G1 Z-2.680203 F50
G1 X360.362944 Y107.743655 F1200
G0 Z3
G0 X360.362437 Y141.993147
G1 Z-4 F50
G1 X360.362944 Y107.743655 F1200
G0 Z3
G0 X332.140355 Y136.331472
G1 Z-1.340102 F50
G1 X332.139594 Y113.725888 F1200
G0 Z3
G0 X332.140355 Y136.331472
G1 Z-2.680203 F50
G1 X332.139594 Y113.725888 F1200
G0 Z3
G0 X332.140355 Y136.331472
G1 Z-4 F50
G1 X332.139594 Y113.725888 F1200
G0 Z3
G0 X366.006853 Y136.331472
G1 Z-1.340102 F50
G1 X366.007614 Y113.725888 F1200
G0 Z3
G0 X366.006853 Y136.331472
G1 Z-2.680203 F50
G1 X366.007614 Y113.725888 F1200
G0 Z3
G0 X366.006853 Y136.331472
G1 Z-4 F50
G1 X366.007614 Y113.725888 F1200

(usb)
G0 Z3
T1 M6
G0 X221.713452 Y14.985533
G1 Z-1.340102 F50
G1 X221.713198 Y17.822335 F500
G1 X231.959391 Y17.822335
G1 X231.959391 Y14.984772
G1 X221.713198 Y14.984772
G1 Z-2.680203 F50
G1 X221.713198 Y17.822335 F500
G1 X231.959391 Y17.822335
G1 X231.959391 Y14.984772
G1 X221.713198 Y14.984772
G1 Z-4 F50
G1 X221.713198 Y17.822335 F500
G1 X231.959391 Y17.822335
G1 X231.959391 Y14.984772
G1 X221.713198 Y14.984772
G0 Z3
G0 X203.368782 Y14.985533
G1 Z-1.340102 F50
G1 X203.36802 Y17.822335 F500
G1 X213.614213 Y17.822335
G1 X213.614213 Y14.984772
G1 X203.36802 Y14.984772
G1 Z-2.680203 F50
G1 X203.36802 Y17.822335 F500
G1 X213.614213 Y17.822335
G1 X213.614213 Y14.984772
G1 X203.36802 Y14.984772
G1 Z-4 F50
G1 X203.36802 Y17.822335 F500
G1 X213.614213 Y17.822335
G1 X213.614213 Y14.984772
G1 X203.36802 Y14.984772
G0 Z3
G0 X185.024365 Y14.985533
G1 Z-1.340102 F50
G1 X185.025381 Y17.822335 F500
G1 X195.269036 Y17.822335
G1 X195.269036 Y14.984772
G1 X185.025381 Y14.984772
G1 Z-2.680203 F50
G1 X185.025381 Y17.822335 F500
G1 X195.269036 Y17.822335
G1 X195.269036 Y14.984772
G1 X185.025381 Y14.984772
G1 Z-4 F50
G1 X185.025381 Y17.822335 F500
G1 X195.269036 Y17.822335
G1 X195.269036 Y14.984772
G1 X185.025381 Y14.984772
G0 Z3
G0 X166.679949 Y14.985533
G1 Z-1.340102 F50
G1 X166.680203 Y17.822335 F500
G1 X176.926396 Y17.822335
G1 X176.926396 Y14.984772
G1 X166.680203 Y14.984772
G1 Z-2.680203 F50
G1 X166.680203 Y17.822335 F500
G1 X176.926396 Y17.822335
G1 X176.926396 Y14.984772
G1 X166.680203 Y14.984772
G1 Z-4 F50
G1 X166.680203 Y17.822335 F500
G1 X176.926396 Y17.822335
G1 X176.926396 Y14.984772
G1 X166.680203 Y14.984772

(power in)
G0 Z3
T0 M6
G0 X242.18198 Y16.404061
G1 Z-1.340102 F50
G1 X248.532995 Y16.403553 F500
G0 Z3
G0 X242.18198 Y16.404061
G1 Z-2.680203 F50
G1 X248.532995 Y16.403553 F500
G0 Z3
G0 X242.18198 Y16.404061
G1 Z-4 F50
G1 X248.532995 Y16.403553 F500

(volume)
G0 Z3
G0 X350.719036 Y76.808376
G1 Z-1.340102 F50
G2 X350.840102 Y76.200508 I-1.469543 J-0.609137 F500
G2 X350.718274 Y75.591371 I-1.588832 J0
G2 X350.373096 Y75.076142 I-1.469543 J0.609137
G2 X349.857868 Y74.730964 I-1.124365 J1.124365
G2 X349.251269 Y74.609137 I-0.609137 J1.469543
G2 X348.642132 Y74.730964 I0 J1.588832
G2 X348.126904 Y75.076142 I0.609137 J1.469543
G2 X347.781726 Y75.591371 I1.124365 J1.124365
G2 X347.659898 Y76.200508 I1.469543 J0.609137
G2 X347.781726 Y76.809645 I1.588832 J0
G2 X348.126904 Y77.324873 I1.469543 J-0.609137
G2 X348.642132 Y77.670051 I1.124365 J-1.124365
G2 X349.251269 Y77.78934 I0.609137 J-1.469543
G2 X349.857868 Y77.670051 I0 J-1.588832
G2 X350.373096 Y77.324873 I-0.609137 J-1.469543
G2 X350.718274 Y76.809645 I-1.124365 J-1.124365
G1 Z-2.680203 F50
G2 X350.840102 Y76.200508 I-1.469543 J-0.609137 F500
G2 X350.718274 Y75.591371 I-1.588832 J0
G2 X350.373096 Y75.076142 I-1.469543 J0.609137
G2 X349.857868 Y74.730964 I-1.124365 J1.124365
G2 X349.251269 Y74.609137 I-0.609137 J1.469543
G2 X348.642132 Y74.730964 I0 J1.588832
G2 X348.126904 Y75.076142 I0.609137 J1.469543
G2 X347.781726 Y75.591371 I1.124365 J1.124365
G2 X347.659898 Y76.200508 I1.469543 J0.609137
G2 X347.781726 Y76.809645 I1.588832 J0
G2 X348.126904 Y77.324873 I1.469543 J-0.609137
G2 X348.642132 Y77.670051 I1.124365 J-1.124365
G2 X349.251269 Y77.78934 I0.609137 J-1.469543
G2 X349.857868 Y77.670051 I0 J-1.588832
G2 X350.373096 Y77.324873 I-0.609137 J-1.469543
G2 X350.718274 Y76.809645 I-1.124365 J-1.124365
G1 Z-4 F50
G2 X350.840102 Y76.200508 I-1.469543 J-0.609137 F500
G2 X350.718274 Y75.591371 I-1.588832 J0
G2 X350.373096 Y75.076142 I-1.469543 J0.609137
G2 X349.857868 Y74.730964 I-1.124365 J1.124365
G2 X349.251269 Y74.609137 I-0.609137 J1.469543
G2 X348.642132 Y74.730964 I0 J1.588832
G2 X348.126904 Y75.076142 I0.609137 J1.469543
G2 X347.781726 Y75.591371 I1.124365 J1.124365
G2 X347.659898 Y76.200508 I1.469543 J0.609137
G2 X347.781726 Y76.809645 I1.588832 J0
G2 X348.126904 Y77.324873 I1.469543 J-0.609137
G2 X348.642132 Y77.670051 I1.124365 J-1.124365
G2 X349.251269 Y77.78934 I0.609137 J-1.469543
G2 X349.857868 Y77.670051 I0 J-1.588832
G2 X350.373096 Y77.324873 I-0.609137 J-1.469543
G2 X350.718274 Y76.809645 I-1.124365 J-1.124365

(power)
G0 Z3
G0 X45.07335 Y72.942893
G1 Z-1.340102 F50
G2 X43.695431 Y75.002538 I4.492386 J4.492386 F500
G2 X43.213198 Y77.43401 I5.86802 J2.431472
G2 X43.695431 Y79.865482 I6.352792 J0
G2 X45.073604 Y81.926396 I5.86802 J-2.431472
G2 X47.134518 Y83.304569 I4.492386 J-4.492386
G2 X49.56599 Y83.786802 I2.431472 J-5.86802
G2 X51.997462 Y83.304569 I0 J-6.352792
G2 X54.058376 Y81.926396 I-2.431472 J-5.86802
G2 X55.43401 Y79.865482 I-4.492386 J-4.492386
G2 X55.918782 Y77.43401 I-5.86802 J-2.431472
G2 X55.43401 Y75.002538 I-6.352792 J0
G2 X54.058376 Y72.941624 I-5.86802 J2.431472
G2 X52.890863 Y72.022843 I-4.492386 J4.492386
G2 X51.997462 Y71.56599 I-3.324873 J5.413706
G2 X49.56599 Y71.081218 I-2.431472 J5.86802
G2 X47.134518 Y71.56599 I0 J6.352792
G2 X46.238579 Y72.022843 I2.431472 J5.86802
G2 X45.073604 Y72.941624 I3.324873 J5.413706
G1 Z-2.680203 F50
G2 X43.695431 Y75.002538 I4.492386 J4.492386 F500
G2 X43.213198 Y77.43401 I5.86802 J2.431472
G2 X43.695431 Y79.865482 I6.352792 J0
G2 X45.073604 Y81.926396 I5.86802 J-2.431472
G2 X47.134518 Y83.304569 I4.492386 J-4.492386
G2 X49.56599 Y83.786802 I2.431472 J-5.86802
G2 X51.997462 Y83.304569 I0 J-6.352792
G2 X54.058376 Y81.926396 I-2.431472 J-5.86802
G2 X55.43401 Y79.865482 I-4.492386 J-4.492386
G2 X55.918782 Y77.43401 I-5.86802 J-2.431472
G2 X55.43401 Y75.002538 I-6.352792 J0
G2 X54.058376 Y72.941624 I-5.86802 J2.431472
G2 X52.890863 Y72.022843 I-4.492386 J4.492386
G1 Z-2 F50
G2 X51.997462 Y71.56599 I-3.324873 J5.413706 F500
G2 X49.56599 Y71.081218 I-2.431472 J5.86802
G2 X47.134518 Y71.56599 I0 J6.352792
G2 X46.238579 Y72.022843 I2.431472 J5.86802
G1 Z-2.680203 F50
G2 X45.073604 Y72.941624 I3.324873 J5.413706 F500
G1 Z-4 F50
G2 X43.695431 Y75.002538 I4.492386 J4.492386 F500
G2 X43.213198 Y77.43401 I5.86802 J2.431472
G2 X43.695431 Y79.865482 I6.352792 J0
G2 X45.073604 Y81.926396 I5.86802 J-2.431472
G2 X47.134518 Y83.304569 I4.492386 J-4.492386
G2 X49.56599 Y83.786802 I2.431472 J-5.86802
G2 X51.997462 Y83.304569 I0 J-6.352792
G2 X54.058376 Y81.926396 I-2.431472 J-5.86802
G2 X55.43401 Y79.865482 I-4.492386 J-4.492386
G2 X55.918782 Y77.43401 I-5.86802 J-2.431472
G2 X55.43401 Y75.002538 I-6.352792 J0
G2 X54.058376 Y72.941624 I-5.86802 J2.431472
G2 X52.890863 Y72.022843 I-4.492386 J4.492386
G1 Z-2 F50
G2 X51.997462 Y71.56599 I-3.324873 J5.413706 F500
G2 X49.56599 Y71.081218 I-2.431472 J5.86802
G2 X47.134518 Y71.56599 I0 J6.352792
G2 X46.238579 Y72.022843 I2.431472 J5.86802
G1 Z-4 F50
G2 X45.073604 Y72.941624 I3.324873 J5.413706 F500

(screen)
G0 Z3
G0 X179.943909 Y165.074873
G1 Z-1.340102 F50
G2 X196.124365 Y165.274112 I19.375635 J-920.060914 F1500
G2 X199.319797 Y165.279188 I3.195431 J-920.258883
G2 X203.124365 Y165.271574 I0 J-1066.550761
G2 X220.949239 Y165.058376 I-3.804569 J-1066.545685
G2 X254.319797 Y164.162437 I-51.477157 J-2537.817259
G2 X265.360406 Y163.774112 I-98.045685 J-2931.560914
G2 X275.642132 Y163.370558 I-94.63198 J-2542.753807
G2 X279.401015 Y163.21066 I-84.71066 J-2052.753807
G2 X282.139594 Y163.088832 I-46.961929 J-1089.596447
G2 X284.525381 Y162.974619 I-27.06599 J-593.319797
G2 X284.822335 Y162.956853 I-0.522843 J-10.550761
G2 X285.032995 Y162.93401 I-0.243655 J-3.139594
G2 X285.038071 Y162.901015 I-1.918782 J-0.294416
G2 X285.06599 Y162.647208 I-4.243655 J-0.57868
G2 X285.116751 Y161.837563 I-33.370558 J-2.545685
G2 X285.489848 Y153.85533 I-770.380711 J-40.015228
G2 X286.060914 Y139.134518 I-2614.78934 J-108.667513
G2 X286.761421 Y114.926396 I-1743.390863 J-62.626904
G2 X286.931472 Y99.677665 I-692.200508 J-15.246193
G2 X286.799492 Y86.540609 I-663.832487 J0
G2 X286.284264 Y66.98731 I-1469.662437 J29.088832
G2 X285.898477 Y56.337563 I-1764.058376 J58.408629
G2 X285.28934 Y41.606599 I-3376.14467 J132.195431
G3 X285.142132 Y38.167513 I2312.621827 J-100.662437
G3 X285.116751 Y37.492386 I87.388325 J-3.672589
G3 X285.114213 Y37.388325 I39.548223 J-1.357868
G3 X285.106599 Y37.195431 I140.162437 J-4.441624
G2 X285.07868 Y36.532995 I-25.205584 J0.763959
G2 X285.071066 Y36.426396 I-2.763959 J0.15736
G2 X284.873096 Y36.403553 I-0.263959 J1.428934
G2 X274.238579 Y35.969543 I-47.304569 J1029.862944
G2 X253.695431 Y35.294416 I-136.654822 J3839.530457
G2 X221.182741 Y34.507614 I-80.852792 J2674.091371
G2 X203.007614 Y34.317259 I-21.862944 J1209.784264
G2 X199.319797 Y34.309645 I-3.687817 J1209.977157
G2 X196.007614 Y34.314721 I0 J1175.814721
G2 X177.609137 Y34.510152 I3.312183 J1175.812183
G2 X144.114213 Y35.329949 I51.65736 J2797.195431
G2 X124.720812 Y35.967005 I124.106599 J4075.713198
G2 X113.64467 Y36.403553 I46.875635 J1331.147208
G2 X113.482234 Y36.416244 I0.106599 J2.449239
G2 X113.474619 Y36.472081 I2.073604 J0.322335
G2 X113.451777 Y36.71066 I4.205584 J0.532995
G2 X113.403553 Y37.510152 I36.515228 J2.56599
G2 X112.979695 Y47.043147 I1263.736041 J61.06599
G2 X112.494924 Y59.817259 I2269.322335 J92.510152
G2 X111.819797 Y83.840102 I1720.573604 J60.441624
G2 X111.652284 Y99.677665 I748.553299 J15.837563
G2 X111.817259 Y115.441624 I754.167513 J0
G2 X112.474619 Y138.997462 I1682.926396 J-35.182741
G2 X112.928934 Y151.025381 I2077.022843 J-72.522843
G2 X113.401015 Y161.781726 I1661.34264 J-67.64467
G3 X113.403553 Y161.824873 I-5112.030457 J241.309645
G1 X113.403553 Y161.845178
G2 X113.449239 Y162.560914 I24.050761 J-1.134518
G2 X113.477157 Y162.819797 I4.121827 J-0.317259
G2 X113.497462 Y162.939086 I2.032995 J-0.281726
G2 X113.65736 Y162.954315 I0.256345 J-1.926396
G2 X115.14467 Y163.022843 I7.279188 J-141.601523
G2 X123.304569 Y163.347716 I172.030457 J-4208.799492
G2 X134.406091 Y163.763959 I144.010152 J-3698.903553
G2 X145.459391 Y164.14467 I131.692893 J-3665.550761
G2 X179.944162 Y165.076142 I95.824873 J-2911.883249
G1 Z-2.680203 F50
G2 X196.124365 Y165.274112 I19.375635 J-920.060914 F1500
G1 Z-2 F50
G2 X199.319797 Y165.279188 I3.195431 J-920.258883 F1500
G2 X203.124365 Y165.271574 I0 J-1066.550761
G1 Z-2.680203 F50
G2 X220.949239 Y165.058376 I-3.804569 J-1066.545685 F1500
G2 X254.319797 Y164.162437 I-51.477157 J-2537.817259
G2 X265.360406 Y163.774112 I-98.045685 J-2931.560914
G2 X275.642132 Y163.370558 I-94.63198 J-2542.753807
G2 X279.401015 Y163.21066 I-84.71066 J-2052.753807
G2 X282.139594 Y163.088832 I-46.961929 J-1089.596447
G2 X284.525381 Y162.974619 I-27.06599 J-593.319797
G2 X284.822335 Y162.956853 I-0.522843 J-10.550761
G2 X285.032995 Y162.93401 I-0.243655 J-3.139594
G2 X285.038071 Y162.901015 I-1.918782 J-0.294416
G2 X285.06599 Y162.647208 I-4.243655 J-0.57868
G2 X285.116751 Y161.837563 I-33.370558 J-2.545685
G2 X285.489848 Y153.85533 I-770.380711 J-40.015228
G2 X286.060914 Y139.134518 I-2614.78934 J-108.667513
G2 X286.761421 Y114.926396 I-1743.390863 J-62.626904
G2 X286.931472 Y99.677665 I-692.200508 J-15.246193
G2 X286.799492 Y86.540609 I-663.832487 J0
G2 X286.284264 Y66.98731 I-1469.662437 J29.088832
G2 X285.898477 Y56.337563 I-1764.058376 J58.408629
G2 X285.28934 Y41.606599 I-3376.14467 J132.195431
G3 X285.142132 Y38.167513 I2312.621827 J-100.662437
G3 X285.116751 Y37.492386 I87.388325 J-3.672589
G3 X285.114213 Y37.388325 I39.548223 J-1.357868
G3 X285.106599 Y37.195431 I140.162437 J-4.441624
G2 X285.07868 Y36.532995 I-25.205584 J0.763959
G2 X285.071066 Y36.426396 I-2.763959 J0.15736
G2 X284.873096 Y36.403553 I-0.263959 J1.428934
G2 X274.238579 Y35.969543 I-47.304569 J1029.862944
G2 X253.695431 Y35.294416 I-136.654822 J3839.530457
G2 X221.182741 Y34.507614 I-80.852792 J2674.091371
G2 X203.007614 Y34.317259 I-21.862944 J1209.784264
G1 Z-2 F50
G2 X199.319797 Y34.309645 I-3.687817 J1209.977157 F1500
G2 X196.007614 Y34.314721 I0 J1175.814721
G1 Z-2.680203 F50
G2 X177.609137 Y34.510152 I3.312183 J1175.812183 F1500
G2 X144.114213 Y35.329949 I51.65736 J2797.195431
G2 X124.720812 Y35.967005 I124.106599 J4075.713198
G2 X113.64467 Y36.403553 I46.875635 J1331.147208
G2 X113.482234 Y36.416244 I0.106599 J2.449239
G2 X113.474619 Y36.472081 I2.073604 J0.322335
G2 X113.451777 Y36.71066 I4.205584 J0.532995
G2 X113.403553 Y37.510152 I36.515228 J2.56599
G2 X112.979695 Y47.043147 I1263.736041 J61.06599
G2 X112.494924 Y59.817259 I2269.322335 J92.510152
G2 X111.819797 Y83.840102 I1720.573604 J60.441624
G2 X111.652284 Y99.677665 I748.553299 J15.837563
G2 X111.817259 Y115.441624 I754.167513 J0
G2 X112.474619 Y138.997462 I1682.926396 J-35.182741
G2 X112.928934 Y151.025381 I2077.022843 J-72.522843
G2 X113.401015 Y161.781726 I1661.34264 J-67.64467
G3 X113.403553 Y161.824873 I-5112.030457 J241.309645
G1 X113.403553 Y161.845178
G2 X113.449239 Y162.560914 I24.050761 J-1.134518
G2 X113.477157 Y162.819797 I4.121827 J-0.317259
G2 X113.497462 Y162.939086 I2.032995 J-0.281726
G2 X113.65736 Y162.954315 I0.256345 J-1.926396
G2 X115.14467 Y163.022843 I7.279188 J-141.601523
G2 X123.304569 Y163.347716 I172.030457 J-4208.799492
G2 X134.406091 Y163.763959 I144.010152 J-3698.903553
G2 X145.459391 Y164.14467 I131.692893 J-3665.550761
G2 X179.944162 Y165.076142 I95.824873 J-2911.883249
G1 Z-4 F50
G2 X196.124365 Y165.274112 I19.375635 J-920.060914 F1500
G1 Z-2 F50
G2 X199.319797 Y165.279188 I3.195431 J-920.258883 F1500
G2 X203.124365 Y165.271574 I0 J-1066.550761
G1 Z-4 F50
G2 X220.949239 Y165.058376 I-3.804569 J-1066.545685 F1500
G2 X254.319797 Y164.162437 I-51.477157 J-2537.817259
G2 X265.360406 Y163.774112 I-98.045685 J-2931.560914
G2 X275.642132 Y163.370558 I-94.63198 J-2542.753807
G2 X279.401015 Y163.21066 I-84.71066 J-2052.753807
G2 X282.139594 Y163.088832 I-46.961929 J-1089.596447
G2 X284.525381 Y162.974619 I-27.06599 J-593.319797
G2 X284.822335 Y162.956853 I-0.522843 J-10.550761
G2 X285.032995 Y162.93401 I-0.243655 J-3.139594
G2 X285.038071 Y162.901015 I-1.918782 J-0.294416
G2 X285.06599 Y162.647208 I-4.243655 J-0.57868
G2 X285.116751 Y161.837563 I-33.370558 J-2.545685
G2 X285.489848 Y153.85533 I-770.380711 J-40.015228
G2 X286.060914 Y139.134518 I-2614.78934 J-108.667513
G2 X286.761421 Y114.926396 I-1743.390863 J-62.626904
G2 X286.931472 Y99.677665 I-692.200508 J-15.246193
G2 X286.799492 Y86.540609 I-663.832487 J0
G2 X286.284264 Y66.98731 I-1469.662437 J29.088832
G2 X285.898477 Y56.337563 I-1764.058376 J58.408629
G2 X285.28934 Y41.606599 I-3376.14467 J132.195431
G3 X285.142132 Y38.167513 I2312.621827 J-100.662437
G3 X285.116751 Y37.492386 I87.388325 J-3.672589
G3 X285.114213 Y37.388325 I39.548223 J-1.357868
G3 X285.106599 Y37.195431 I140.162437 J-4.441624
G2 X285.07868 Y36.532995 I-25.205584 J0.763959
G2 X285.071066 Y36.426396 I-2.763959 J0.15736
G2 X284.873096 Y36.403553 I-0.263959 J1.428934
G2 X274.238579 Y35.969543 I-47.304569 J1029.862944
G2 X253.695431 Y35.294416 I-136.654822 J3839.530457
G2 X221.182741 Y34.507614 I-80.852792 J2674.091371
G2 X203.007614 Y34.317259 I-21.862944 J1209.784264
G1 Z-2 F50
G2 X199.319797 Y34.309645 I-3.687817 J1209.977157 F1500
G2 X196.007614 Y34.314721 I0 J1175.814721
G1 Z-4 F50
G2 X177.609137 Y34.510152 I3.312183 J1175.812183 F1500
G2 X144.114213 Y35.329949 I51.65736 J2797.195431
G2 X124.720812 Y35.967005 I124.106599 J4075.713198
G2 X113.64467 Y36.403553 I46.875635 J1331.147208
G2 X113.482234 Y36.416244 I0.106599 J2.449239
G2 X113.474619 Y36.472081 I2.073604 J0.322335
G2 X113.451777 Y36.71066 I4.205584 J0.532995
G2 X113.403553 Y37.510152 I36.515228 J2.56599
G2 X112.979695 Y47.043147 I1263.736041 J61.06599
G2 X112.494924 Y59.817259 I2269.322335 J92.510152
G2 X111.819797 Y83.840102 I1720.573604 J60.441624
G2 X111.652284 Y99.677665 I748.553299 J15.837563
G2 X111.817259 Y115.441624 I754.167513 J0
G2 X112.474619 Y138.997462 I1682.926396 J-35.182741
G2 X112.928934 Y151.025381 I2077.022843 J-72.522843
G2 X113.401015 Y161.781726 I1661.34264 J-67.64467
G3 X113.403553 Y161.824873 I-5112.030457 J241.309645
G1 X113.403553 Y161.845178
G2 X113.449239 Y162.560914 I24.050761 J-1.134518
G2 X113.477157 Y162.819797 I4.121827 J-0.317259
G2 X113.497462 Y162.939086 I2.032995 J-0.281726
G2 X113.65736 Y162.954315 I0.256345 J-1.926396
G2 X115.14467 Y163.022843 I7.279188 J-141.601523
G2 X123.304569 Y163.347716 I172.030457 J-4208.799492
G2 X134.406091 Y163.763959 I144.010152 J-3698.903553
G2 X145.459391 Y164.14467 I131.692893 J-3665.550761
G2 X179.944162 Y165.076142 I95.824873 J-2911.883249
G0 Z3
M5
M30
