(Decimal precision updated by Gcode Rounder 1.0)
(Generated by PartKam Version 0.05)

G21 G90 G40

(speaker)
G0 Z3
T0 M6
G17
M3
G0 X22.85203 Y48.891878
G1 Z-1.340102 F50
G2 X24.111675 Y53.106599 I21.192893 J-4.043147 F1000
G2 X26.200508 Y56.977157 I19.931472 J-8.256345
G2 X29.271574 Y60.687817 I21.164975 J-14.383249
G2 X32.982234 Y63.756345 I18.093909 J-18.093909
G2 X36.852792 Y65.845178 I12.126904 J-17.84264
G2 X41.06599 Y67.106599 I8.256345 J-19.931472
G2 X45.860406 Y67.558376 I4.794416 J-25.137056
G2 X50.654822 Y67.106599 I0 J-25.591371
G2 X54.870558 Y65.845178 I-4.043147 J-21.192893
G2 X58.741117 Y63.756345 I-8.256345 J-19.931472
G2 X62.451777 Y60.687817 I-14.383249 J-21.164975
G2 X65.520305 Y56.977157 I-18.093909 J-18.093909
G2 X67.609137 Y53.106599 I-17.84264 J-12.126904
G2 X68.870558 Y48.890863 I-19.931472 J-8.256345
G2 X69.322335 Y44.096447 I-25.137056 J-4.794416
G2 X68.870558 Y39.30203 I-25.591371 J0
G2 X67.609137 Y35.088832 I-21.192893 J4.043147
G2 X65.520305 Y31.218274 I-19.931472 J8.256345
G2 X62.451777 Y27.507614 I-21.164975 J14.383249
G2 X58.741117 Y24.436548 I-18.093909 J18.093909
G2 X54.870558 Y22.347716 I-12.126904 J17.84264
G2 X50.654822 Y21.088832 I-8.256345 J19.931472
G2 X49.253807 Y20.860406 I-4.794416 J25.137056
G2 X45.860406 Y20.634518 I-3.390863 J25.365482
G2 X42.274112 Y20.888325 I0 J25.591371
G2 X41.06599 Y21.088832 I3.586294 J25.337563
G2 X36.852792 Y22.347716 I4.043147 J21.192893
G2 X32.982234 Y24.436548 I8.256345 J19.931472
G2 X29.271574 Y27.507614 I14.383249 J21.164975
G2 X26.200508 Y31.218274 I18.093909 J18.093909
G2 X24.111675 Y35.088832 I17.84264 J12.126904
G2 X22.852792 Y39.30203 I19.931472 J8.256345
G2 X22.398477 Y44.096447 I25.137056 J4.794416
G2 X22.852792 Y48.890863 I25.591371 J0
G1 Z-2.680203 F50
G2 X24.111675 Y53.106599 I21.192893 J-4.043147 F1000
G2 X26.200508 Y56.977157 I19.931472 J-8.256345
G2 X29.271574 Y60.687817 I21.164975 J-14.383249
G2 X32.982234 Y63.756345 I18.093909 J-18.093909
G2 X36.852792 Y65.845178 I12.126904 J-17.84264
G2 X41.06599 Y67.106599 I8.256345 J-19.931472
G2 X45.860406 Y67.558376 I4.794416 J-25.137056
G2 X50.654822 Y67.106599 I0 J-25.591371
G2 X54.870558 Y65.845178 I-4.043147 J-21.192893
G2 X58.741117 Y63.756345 I-8.256345 J-19.931472
G2 X62.451777 Y60.687817 I-14.383249 J-21.164975
G2 X65.520305 Y56.977157 I-18.093909 J-18.093909
G2 X67.609137 Y53.106599 I-17.84264 J-12.126904
G2 X68.870558 Y48.890863 I-19.931472 J-8.256345
G2 X69.322335 Y44.096447 I-25.137056 J-4.794416
G2 X68.870558 Y39.30203 I-25.591371 J0
G2 X67.609137 Y35.088832 I-21.192893 J4.043147
G2 X65.520305 Y31.218274 I-19.931472 J8.256345
G2 X62.451777 Y27.507614 I-21.164975 J14.383249
G2 X58.741117 Y24.436548 I-18.093909 J18.093909
G2 X54.870558 Y22.347716 I-12.126904 J17.84264
G2 X50.654822 Y21.088832 I-8.256345 J19.931472
G2 X49.253807 Y20.860406 I-4.794416 J25.137056
G1 Z-2 F50
G2 X45.860406 Y20.634518 I-3.390863 J25.365482 F1000
G2 X42.274112 Y20.888325 I0 J25.591371
G1 Z-2.680203 F50
G2 X41.06599 Y21.088832 I3.586294 J25.337563 F1000
G2 X36.852792 Y22.347716 I4.043147 J21.192893
G2 X32.982234 Y24.436548 I8.256345 J19.931472
G2 X29.271574 Y27.507614 I14.383249 J21.164975
G2 X26.200508 Y31.218274 I18.093909 J18.093909
G2 X24.111675 Y35.088832 I17.84264 J12.126904
G2 X22.852792 Y39.30203 I19.931472 J8.256345
G2 X22.398477 Y44.096447 I25.137056 J4.794416
G2 X22.852792 Y48.890863 I25.591371 J0
G1 Z-4 F50
G2 X24.111675 Y53.106599 I21.192893 J-4.043147 F1000
G2 X26.200508 Y56.977157 I19.931472 J-8.256345
G2 X29.271574 Y60.687817 I21.164975 J-14.383249
G2 X32.982234 Y63.756345 I18.093909 J-18.093909
G2 X36.852792 Y65.845178 I12.126904 J-17.84264
G2 X41.06599 Y67.106599 I8.256345 J-19.931472
G2 X45.860406 Y67.558376 I4.794416 J-25.137056
G2 X50.654822 Y67.106599 I0 J-25.591371
G2 X54.870558 Y65.845178 I-4.043147 J-21.192893
G2 X58.741117 Y63.756345 I-8.256345 J-19.931472
G2 X62.451777 Y60.687817 I-14.383249 J-21.164975
G2 X65.520305 Y56.977157 I-18.093909 J-18.093909
G2 X67.609137 Y53.106599 I-17.84264 J-12.126904
G2 X68.870558 Y48.890863 I-19.931472 J-8.256345
G2 X69.322335 Y44.096447 I-25.137056 J-4.794416
G2 X68.870558 Y39.30203 I-25.591371 J0
G2 X67.609137 Y35.088832 I-21.192893 J4.043147
G2 X65.520305 Y31.218274 I-19.931472 J8.256345
G2 X62.451777 Y27.507614 I-21.164975 J14.383249
G2 X58.741117 Y24.436548 I-18.093909 J18.093909
G2 X54.870558 Y22.347716 I-12.126904 J17.84264
G2 X50.654822 Y21.088832 I-8.256345 J19.931472
G2 X49.253807 Y20.860406 I-4.794416 J25.137056
G1 Z-2 F50
G2 X45.860406 Y20.634518 I-3.390863 J25.365482 F1000
G2 X42.274112 Y20.888325 I0 J25.591371
G1 Z-4 F50
G2 X41.06599 Y21.088832 I3.586294 J25.337563 F1000
G2 X36.852792 Y22.347716 I4.043147 J21.192893
G2 X32.982234 Y24.436548 I8.256345 J19.931472
G2 X29.271574 Y27.507614 I14.383249 J21.164975
G2 X26.200508 Y31.218274 I18.093909 J18.093909
G2 X24.111675 Y35.088832 I17.84264 J12.126904
G2 X22.852792 Y39.30203 I19.931472 J8.256345
G2 X22.398477 Y44.096447 I25.137056 J4.794416
G2 X22.852792 Y48.890863 I25.591371 J0
G0 Z3
G0 X58.740609 Y94.99264
G1 Z-1.340102 F50
G2 X54.870558 Y92.903553 I-12.126904 J17.84264 F1000
G2 X50.654822 Y91.64467 I-8.256345 J19.931472
G2 X49.253807 Y91.416244 I-4.794416 J25.137056
G2 X45.860406 Y91.190355 I-3.390863 J25.365482
G2 X42.274112 Y91.444162 I0 J25.591371
G2 X41.06599 Y91.64467 I3.586294 J25.337563
G2 X36.852792 Y92.903553 I4.043147 J21.192893
G2 X32.982234 Y94.992386 I8.256345 J19.931472
G2 X29.271574 Y98.063452 I14.383249 J21.164975
G2 X26.200508 Y101.774112 I18.093909 J18.093909
G2 X24.111675 Y105.64467 I17.84264 J12.126904
G2 X22.852792 Y109.857868 I19.931472 J8.256345
G2 X22.398477 Y114.652284 I25.137056 J4.794416
G2 X22.852792 Y119.446701 I25.591371 J0
G2 X24.111675 Y123.662437 I21.192893 J-4.043147
G2 X26.200508 Y127.532995 I19.931472 J-8.256345
G2 X29.271574 Y131.243655 I21.164975 J-14.383249
G2 X32.982234 Y134.312183 I18.093909 J-18.093909
G2 X36.852792 Y136.401015 I12.126904 J-17.84264
G2 X41.06599 Y137.662437 I8.256345 J-19.931472
G2 X45.860406 Y138.114213 I4.794416 J-25.137056
G2 X50.654822 Y137.662437 I0 J-25.591371
G2 X54.870558 Y136.401015 I-4.043147 J-21.192893
G2 X58.741117 Y134.312183 I-8.256345 J-19.931472
G2 X62.451777 Y131.243655 I-14.383249 J-21.164975
G2 X65.520305 Y127.532995 I-18.093909 J-18.093909
G2 X67.609137 Y123.662437 I-17.84264 J-12.126904
G2 X68.870558 Y119.446701 I-19.931472 J-8.256345
G2 X69.322335 Y114.652284 I-25.137056 J-4.794416
G2 X68.870558 Y109.857868 I-25.591371 J0
G2 X67.609137 Y105.64467 I-21.192893 J4.043147
G2 X65.520305 Y101.774112 I-19.931472 J8.256345
G2 X62.451777 Y98.063452 I-21.164975 J14.383249
G2 X58.741117 Y94.992386 I-18.093909 J18.093909
G1 Z-2.680203 F50
G2 X54.870558 Y92.903553 I-12.126904 J17.84264 F1000
G2 X50.654822 Y91.64467 I-8.256345 J19.931472
G2 X49.253807 Y91.416244 I-4.794416 J25.137056
G1 Z-2 F50
G2 X45.860406 Y91.190355 I-3.390863 J25.365482 F1000
G2 X42.274112 Y91.444162 I0 J25.591371
G1 Z-2.680203 F50
G2 X41.06599 Y91.64467 I3.586294 J25.337563 F1000
G2 X36.852792 Y92.903553 I4.043147 J21.192893
G2 X32.982234 Y94.992386 I8.256345 J19.931472
G2 X29.271574 Y98.063452 I14.383249 J21.164975
G2 X26.200508 Y101.774112 I18.093909 J18.093909
G2 X24.111675 Y105.64467 I17.84264 J12.126904
G2 X22.852792 Y109.857868 I19.931472 J8.256345
G2 X22.398477 Y114.652284 I25.137056 J4.794416
G2 X22.852792 Y119.446701 I25.591371 J0
G2 X24.111675 Y123.662437 I21.192893 J-4.043147
G2 X26.200508 Y127.532995 I19.931472 J-8.256345
G2 X29.271574 Y131.243655 I21.164975 J-14.383249
G2 X32.982234 Y134.312183 I18.093909 J-18.093909
G2 X36.852792 Y136.401015 I12.126904 J-17.84264
G2 X41.06599 Y137.662437 I8.256345 J-19.931472
G2 X45.860406 Y138.114213 I4.794416 J-25.137056
G2 X50.654822 Y137.662437 I0 J-25.591371
G2 X54.870558 Y136.401015 I-4.043147 J-21.192893
G2 X58.741117 Y134.312183 I-8.256345 J-19.931472
G2 X62.451777 Y131.243655 I-14.383249 J-21.164975
G2 X65.520305 Y127.532995 I-18.093909 J-18.093909
G2 X67.609137 Y123.662437 I-17.84264 J-12.126904
G2 X68.870558 Y119.446701 I-19.931472 J-8.256345
G2 X69.322335 Y114.652284 I-25.137056 J-4.794416
G2 X68.870558 Y109.857868 I-25.591371 J0
G2 X67.609137 Y105.64467 I-21.192893 J4.043147
G2 X65.520305 Y101.774112 I-19.931472 J8.256345
G2 X62.451777 Y98.063452 I-21.164975 J14.383249
G2 X58.741117 Y94.992386 I-18.093909 J18.093909
G1 Z-4 F50
G2 X54.870558 Y92.903553 I-12.126904 J17.84264 F1000
G2 X50.654822 Y91.64467 I-8.256345 J19.931472
G2 X49.253807 Y91.416244 I-4.794416 J25.137056
G1 Z-2 F50
G2 X45.860406 Y91.190355 I-3.390863 J25.365482 F1000
G2 X42.274112 Y91.444162 I0 J25.591371
G1 Z-4 F50
G2 X41.06599 Y91.64467 I3.586294 J25.337563 F1000
G2 X36.852792 Y92.903553 I4.043147 J21.192893
G2 X32.982234 Y94.992386 I8.256345 J19.931472
G2 X29.271574 Y98.063452 I14.383249 J21.164975
G2 X26.200508 Y101.774112 I18.093909 J18.093909
G2 X24.111675 Y105.64467 I17.84264 J12.126904
G2 X22.852792 Y109.857868 I19.931472 J8.256345
G2 X22.398477 Y114.652284 I25.137056 J4.794416
G2 X22.852792 Y119.446701 I25.591371 J0
G2 X24.111675 Y123.662437 I21.192893 J-4.043147
G2 X26.200508 Y127.532995 I19.931472 J-8.256345
G2 X29.271574 Y131.243655 I21.164975 J-14.383249
G2 X32.982234 Y134.312183 I18.093909 J-18.093909
G2 X36.852792 Y136.401015 I12.126904 J-17.84264
G2 X41.06599 Y137.662437 I8.256345 J-19.931472
G2 X45.860406 Y138.114213 I4.794416 J-25.137056
G2 X50.654822 Y137.662437 I0 J-25.591371
G2 X54.870558 Y136.401015 I-4.043147 J-21.192893
G2 X58.741117 Y134.312183 I-8.256345 J-19.931472
G2 X62.451777 Y131.243655 I-14.383249 J-21.164975
G2 X65.520305 Y127.532995 I-18.093909 J-18.093909
G2 X67.609137 Y123.662437 I-17.84264 J-12.126904
G2 X68.870558 Y119.446701 I-19.931472 J-8.256345
G2 X69.322335 Y114.652284 I-25.137056 J-4.794416
G2 X68.870558 Y109.857868 I-25.591371 J0
G2 X67.609137 Y105.64467 I-21.192893 J4.043147
G2 X65.520305 Y101.774112 I-19.931472 J8.256345
G2 X62.451777 Y98.063452 I-21.164975 J14.383249
G2 X58.741117 Y94.992386 I-18.093909 J18.093909

(holes)
G0 Z3
G0 X23.636041 Y21.872335
G1 Z-4 F50
G1 Z0 F50
G0 Z3
G0 X68.086041 Y21.872335
G1 Z-4 F50
G1 Z0 F50
G0 Z3
G0 X68.086041 Y66.322335
G1 Z-4 F50
G1 Z0 F50
G0 Z3
G0 X23.636041 Y66.322335
G1 Z-4 F50
G1 Z0 F50
G0 Z3
G0 X23.636041 Y92.427665
G1 Z-4 F50
G1 Z0 F50
G0 Z3
G0 X68.086041 Y92.427665
G1 Z-4 F50
G1 Z0 F50
G0 Z3
G0 X68.086041 Y136.877665
G1 Z-4 F50
G1 Z0 F50
G0 Z3
G0 X23.636041 Y136.877665
G1 Z-4 F50
G1 Z0 F50

(outline)
G0 Z3
G0 X26.291371 Y13.93731
G1 Z-1.340102 F50
G1 X65.449239 Y13.936548 F1000
G3 X66.571066 Y14.401015 I0 J1.583756
G1 X75.555838 Y23.388325
G3 X76.020305 Y24.507614 I-1.121827 J1.121827
G1 X76.020305 Y63.667513
G3 X75.555838 Y64.786802 I-1.583756 J0
G1 X66.550761 Y73.791878
G3 X65.431472 Y74.256345 I-1.121827 J-1.121827
G1 X49.804569 Y74.256345
G1 X42.804569 Y74.256345
G1 X26.309645 Y74.256345
G3 X25.190355 Y73.791878 I0 J-1.583756
G1 X16.164975 Y64.769036
G3 X15.700508 Y63.647208 I1.121827 J-1.121827
G1 X15.700508 Y24.527919
G3 X16.164975 Y23.406091 I1.583756 J0
G1 X25.170051 Y14.401015
G3 X26.291878 Y13.936548 I1.121827 J1.121827
G1 Z-2.680203 F50
G1 X65.449239 Y13.936548 F1000
G3 X66.571066 Y14.401015 I0 J1.583756
G1 X75.555838 Y23.388325
G3 X76.020305 Y24.507614 I-1.121827 J1.121827
G1 X76.020305 Y63.667513
G3 X75.555838 Y64.786802 I-1.583756 J0
G1 X66.550761 Y73.791878
G3 X65.431472 Y74.256345 I-1.121827 J-1.121827
G1 X49.804569 Y74.256345
G1 Z-2 F50
G1 X42.804569 Y74.256345 F1000
G1 Z-2.680203 F50
G1 X26.309645 Y74.256345 F1000
G3 X25.190355 Y73.791878 I0 J-1.583756
G1 X16.164975 Y64.769036
G3 X15.700508 Y63.647208 I1.121827 J-1.121827
G1 X15.700508 Y24.527919
G3 X16.164975 Y23.406091 I1.583756 J0
G1 X25.170051 Y14.401015
G3 X26.291878 Y13.936548 I1.121827 J1.121827
G1 Z-4 F50
G1 X65.449239 Y13.936548 F1000
G3 X66.571066 Y14.401015 I0 J1.583756
G1 X75.555838 Y23.388325
G3 X76.020305 Y24.507614 I-1.121827 J1.121827
G1 X76.020305 Y63.667513
G3 X75.555838 Y64.786802 I-1.583756 J0
G1 X66.550761 Y73.791878
G3 X65.431472 Y74.256345 I-1.121827 J-1.121827
G1 X49.804569 Y74.256345
G1 Z-2 F50
G1 X42.804569 Y74.256345 F1000
G1 Z-4 F50
G1 X26.309645 Y74.256345 F1000
G3 X25.190355 Y73.791878 I0 J-1.583756
G1 X16.164975 Y64.769036
G3 X15.700508 Y63.647208 I1.121827 J-1.121827
G1 X15.700508 Y24.527919
G3 X16.164975 Y23.406091 I1.583756 J0
G1 X25.170051 Y14.401015
G3 X26.291878 Y13.936548 I1.121827 J1.121827
G0 Z3
G0 X26.291371 Y84.492893
G1 Z-1.340102 F50
G1 X65.449239 Y84.492386 F1000
G3 X66.571066 Y84.956853 I0 J1.583756
G1 X75.555838 Y93.944162
G3 X76.020305 Y95.063452 I-1.121827 J1.121827
G1 X76.020305 Y134.22335
G3 X75.555838 Y135.34264 I-1.583756 J0
G1 X66.550761 Y144.347716
G3 X65.431472 Y144.812183 I-1.121827 J-1.121827
G1 X49.804569 Y144.812183
G1 X42.804569 Y144.812183
G1 X26.309645 Y144.812183
G3 X25.190355 Y144.347716 I0 J-1.583756
G1 X16.164975 Y135.324873
G3 X15.700508 Y134.203046 I1.121827 J-1.121827
G1 X15.700508 Y95.083756
G3 X16.164975 Y93.961929 I1.583756 J0
G1 X25.170051 Y84.956853
G3 X26.291878 Y84.492386 I1.121827 J1.121827
G1 Z-2.680203 F50
G1 X65.449239 Y84.492386 F1000
G3 X66.571066 Y84.956853 I0 J1.583756
G1 X75.555838 Y93.944162
G3 X76.020305 Y95.063452 I-1.121827 J1.121827
G1 X76.020305 Y134.22335
G3 X75.555838 Y135.34264 I-1.583756 J0
G1 X66.550761 Y144.347716
G3 X65.431472 Y144.812183 I-1.121827 J-1.121827
G1 X49.804569 Y144.812183
G1 Z-2 F50
G1 X42.804569 Y144.812183 F1000
G1 Z-2.680203 F50
G1 X26.309645 Y144.812183 F1000
G3 X25.190355 Y144.347716 I0 J-1.583756
G1 X16.164975 Y135.324873
G3 X15.700508 Y134.203046 I1.121827 J-1.121827
G1 X15.700508 Y95.083756
G3 X16.164975 Y93.961929 I1.583756 J0
G1 X25.170051 Y84.956853
G3 X26.291878 Y84.492386 I1.121827 J1.121827
G1 Z-4 F50
G1 X65.449239 Y84.492386 F1000
G3 X66.571066 Y84.956853 I0 J1.583756
G1 X75.555838 Y93.944162
G3 X76.020305 Y95.063452 I-1.121827 J1.121827
G1 X76.020305 Y134.22335
G3 X75.555838 Y135.34264 I-1.583756 J0
G1 X66.550761 Y144.347716
G3 X65.431472 Y144.812183 I-1.121827 J-1.121827
G1 X49.804569 Y144.812183
G1 Z-2 F50
G1 X42.804569 Y144.812183 F1000
G1 Z-4 F50
G1 X26.309645 Y144.812183 F1000
G3 X25.190355 Y144.347716 I0 J-1.583756
G1 X16.164975 Y135.324873
G3 X15.700508 Y134.203046 I1.121827 J-1.121827
G1 X15.700508 Y95.083756
G3 X16.164975 Y93.961929 I1.583756 J0
G1 X25.170051 Y84.956853
G3 X26.291878 Y84.492386 I1.121827 J1.121827
G0 Z3
M5
M30
