(Decimal precision updated by Gcode Rounder 0.1)
(Generated by PartKam Version 0.05)

G21 G90 G40

(power led)
G0 Z5
T0 M6
G17
M3
G0 X75.31802 Y77.434772
G1 Z-4 F150
G1 Z0 F150
G0 Z5
G0 X71.790355 Y77.434772
G1 Z-4 F150
G1 Z0 F150
G0 Z5
G0 X68.262437 Y77.434772
G1 Z-4 F150
G1 Z0 F150
G0 Z5
G0 X64.734772 Y77.434772
G1 Z-4 F150
G1 Z0 F150
G0 Z5
M5
M30
